COLOR/status 16/16/repository.svg

<svg height="16" width="16" xmlns="http://www.w3.org/2000/svg"><rect fill="#02a8f3" height="15" rx="7.5" stroke-width=".9375" transform="matrix(0 -1 -1 0 0 0)" width="15" x="-15.5" y="-15.5"/><path d="m7.4745312 3.3399688c-2.3384062.2621718-4.1620312 2.249625-4.1620312 4.6585312 0 2.586094 2.101875 4.688906 4.6870313 4.688906 2.5856247 0 4.6879687-2.102812 4.6879687-4.688906 0-2.3742188-1.773281-4.3365-4.0635938-4.6435312 0 0-.63975-.084717-1.149375-.015044zm.2131407.6337968v1.5782813c-.4474688-.0158438-.8754375-.0632813-1.2709688-.138.0594375-.1393125.1216875-.2734688.1895625-.3957188.313125-.5638125.6912188-.9155625 1.0814063-1.0445625zm.6695156.026166c.03518.00583.070964.00992.1059188.016352.3525656.1543594.6914062.4893281.976125 1.002.066664.1200464.127875.2514745.1863375.3878714-.3937313.076734-.8212969.1265437-1.2684375.1445531zm-2.05875.2668125c-.0984375.1339684-.1926562.2742184-.2770312.4264684-.0975.1750781-.1842188.3647344-.264375.5626406-.215625-.0632812-.41625-.1351875-.5994844-.2140312.3313594-.3190313.7166719-.5815782 1.1409375-.7750781zm3.560625.156975c.3952965.1229059.6976875.3733871.9826875.6180934-.171562.073875-.357656.1417969-.558281.2023125-.07875-.1935469-.163594-.3794063-.25875-.5509219-.0520315-.0936562-.1078127-.1824375-.165469-.2694844zm-5.1257813 1.098375c.00697.025111-.011551-.033741-.00288-.00811.2414625.1127343.5285157.292875.8116407.3776718-.1463419.5235003-.2370919 1.0986566-.2614669 1.7065316h-1.3619062c.0751453-.7771875.368775-1.4878125.8148375-2.0760938zm6.5371878.00563c.443531.5872969.735375 1.295625.810094 2.0701876h-1.3155c-.02462-.6124688-.116447-1.1917501-.264788-1.7182501.267356-.081984.533813-.2380687.763359-.345225.01005-.023592-.0016.016509.0068-.00667zm-1.4201252.517354c.1332187.4690313.2195062.994125.2445282 1.5527813h-1.7378439v-1.3775625c.5260313-.0193032 1.0285313-.0787407 1.4933438-.1752938zm-3.658125.00981c.4658062.094031.9691875.1501313 1.4953124.1667907v1.37625h-1.7371874c.0248531-.5548566.11025-1.0764347.2419125-1.5429347zm-2.2805625 2.2127841h1.368375c.025097.6246094.1197281 1.215375.2733 1.7503128-.3010875.0391-.819.343668-.8457188.358622-.5260781-.6426574-.7386094-1.2267192-.7958437-2.1093754zm2.0385937 0h1.7371875v1.4233128c-.5216719.01646-1.0210312.07156-1.4835.1641748-.1380937-.4777501-.2273437-1.0152189-.2530312-1.5874689zm2.4066563 0h1.7378437c-.025313.5761875-.1153125 1.1172187-.25575 1.5973126-.4613438-.0951572-.9599062-.1536572-1.4815312-.1726878zm2.4079687 0h1.322063c-.0525.8110312-.291563 1.5089994-.74625 2.1228748-.212813-.134062-.600938-.27375-.852188-.360937.155625-.5378441.25125-1.1327816.276563-1.7618441zm-3.0774375 2.0930628v1.530562c-.39-.129375-.7682812-.479531-1.0814062-1.043437-.060937-.109688-.1171875-.22875-.1710938-.3525.3904688-.07285.8120625-.119157 1.2526875-.134738zm.6695156.0013c.4405688.0176.86175.06576 1.2507188.140635-.053281.121031-.1088438.23759-.1686844.345356-.3131437.563918-.6916875.914168-1.0820625 1.043262zm-2.5825312.289775c.075487.182381.1561781.358678.2464875.521297.1281562.230625.2740312.439687.433125.62625-.5128125-.209063-.9749063-.515625-1.3592813-.900938.2045063-.09168.4329-.174234.6799688-.245934zm4.4916561.01178c.231225.06886.445041.147618.63811.234168-.366169.367144-.802313.664266-1.286063.871875.1489875-.178621.2851313-.378834.406012-.596531.08838-.159159.167719-.331434.241913-.509531z" fill="#fff" fill-rule="evenodd" stroke-width=".9375"/><g enable-background="new" transform="matrix(1.000000008 0 0 1.000000008 .00000000465 .00000050306)"><path d="m8 .5c-4.155 0-7.5 3.345-7.5 7.5 0 .084349.008983.1663399.0117188.25.13203025-4.0374083 3.41763-7.25 7.4882812-7.25 4.070651 0 7.356251 3.2125917 7.488281 7.25.002736-.0836601.011719-.1656511.011719-.25 0-4.155-3.345-7.5-7.5-7.5z" fill="#fff" opacity=".3"/><path d="m.51171875 7.75c-.00273583.0836601-.01171875.1656511-.01171875.25 0 4.155 3.345 7.5 7.5 7.5s7.5-3.345 7.5-7.5c0-.084349-.009-.1663399-.01172-.25-.132029 4.037408-3.417629 7.25-7.48828 7.25-4.0706512 0-7.35625095-3.212592-7.48828125-7.25z" opacity=".2"/></g></svg>

<?xml version="1.0" encoding="UTF-8" standalone="no"?>
<svg
   xmlns:dc="http://purl.org/dc/elements/1.1/"
   xmlns:cc="http://creativecommons.org/ns#"
   xmlns:rdf="http://www.w3.org/1999/02/22-rdf-syntax-ns#"
   xmlns:svg="http://www.w3.org/2000/svg"
   xmlns="http://www.w3.org/2000/svg"
   xmlns:sodipodi="http://sodipodi.sourceforge.net/DTD/sodipodi-0.dtd"
   xmlns:inkscape="http://www.inkscape.org/namespaces/inkscape"
   width="16"
   height="16"
   version="1"
   id="svg6"
   sodipodi:docname="repository.svg"
   inkscape:version="0.92.4 (5da689c313, 2019-01-14)">
  <metadata
     id="metadata12">
    <rdf:RDF>
      <cc:Work
         rdf:about="">
        <dc:format>image/svg+xml</dc:format>
        <dc:type
           rdf:resource="http://purl.org/dc/dcmitype/StillImage" />
      </cc:Work>
    </rdf:RDF>
  </metadata>
  <defs
     id="defs10" />
  <sodipodi:namedview
     pagecolor="#ffffff"
     bordercolor="#666666"
     borderopacity="1"
     objecttolerance="10"
     gridtolerance="10"
     guidetolerance="10"
     inkscape:pageopacity="0"
     inkscape:pageshadow="2"
     inkscape:window-width="854"
     inkscape:window-height="480"
     id="namedview8"
     showgrid="false"
     inkscape:zoom="14.75"
     inkscape:cx="8"
     inkscape:cy="8"
     inkscape:window-x="0"
     inkscape:window-y="27"
     inkscape:window-maximized="0"
     inkscape:current-layer="svg6" />
  <rect
     width="15"
     height="15"
     x="-15.5"
     y="-15.5"
     rx="7.5"
     ry="7.5"
     transform="matrix(0,-1,-1,0,0,0)"
     id="rect2"
     style="fill:#02a8f3;stroke-width:0.9375" />
  <path
     d="M 7.4745312,3.3399688 C 5.136125,3.6021406 3.3125,5.5895938 3.3125,7.9985 c 0,2.586094 2.101875,4.688906 4.6870313,4.688906 2.5856247,0 4.6879687,-2.102812 4.6879687,-4.688906 0,-2.3742188 -1.773281,-4.3365 -4.0635938,-4.6435312 0,0 -0.63975,-0.084717 -1.149375,-0.015044 z M 7.6876719,3.9737656 V 5.5520469 C 7.2402031,5.5362031 6.8122344,5.4887656 6.4167031,5.4140469 6.4761406,5.2747344 6.5383906,5.1405781 6.6062656,5.0183281 6.9193906,4.4545156 7.2974844,4.1027656 7.6876719,3.9737656 Z m 0.6695156,0.026166 c 0.03518,0.00583 0.070964,0.00992 0.1059188,0.016352 0.3525656,0.1543594 0.6914062,0.4893281 0.976125,1.002 C 9.5058953,5.13833 9.5671063,5.2697581 9.6255688,5.406155 9.2318375,5.482889 8.8042719,5.5326987 8.3571313,5.5507081 Z m -2.05875,0.2668125 C 6.2,4.4007125 6.1057813,4.5409625 6.0214063,4.6932125 5.9239063,4.8682906 5.8371875,5.0579469 5.7570313,5.2558531 5.5414063,5.1925719 5.3407813,5.1206656 5.1575469,5.0418219 5.4889063,4.7227906 5.8742188,4.4602437 6.2984844,4.2667438 Z m 3.560625,0.156975 C 10.254359,4.546625 10.55675,4.7971062 10.84175,5.0418125 10.670188,5.1156875 10.484094,5.1836094 10.283469,5.244125 10.204719,5.0505781 10.119875,4.8647187 10.024719,4.6932031 9.9726875,4.5995469 9.9169063,4.5107656 9.85925,4.4237187 Z m -5.1257813,1.098375 c 0.00697,0.025111 -0.011551,-0.033741 -0.00288,-0.00811 0.2414625,0.1127343 0.5285157,0.292875 0.8116407,0.3776718 C 5.3957,6.4151562 5.30495,6.9903125 5.280575,7.5981875 H 3.9186688 C 3.9938141,6.821 4.2874438,6.110375 4.7335063,5.5220937 Z m 6.5371878,0.00563 c 0.443531,0.5872969 0.735375,1.295625 0.810094,2.0701876 h -1.3155 c -0.02462,-0.6124688 -0.116447,-1.1917501 -0.264788,-1.7182501 0.267356,-0.081984 0.533813,-0.2380687 0.763359,-0.345225 0.01005,-0.023592 -0.0016,0.016509 0.0068,-0.00667 z M 9.8503438,6.0450781 C 9.9835625,6.5141094 10.06985,7.0392031 10.094872,7.5978594 H 8.3570281 V 6.2202969 C 8.8830594,6.2009937 9.3855594,6.1415562 9.8503719,6.0450031 Z m -3.658125,0.00981 c 0.4658062,0.094031 0.9691875,0.1501313 1.4953124,0.1667907 v 1.37625 H 5.9503438 C 5.9751969,7.0430722 6.0605938,6.5214941 6.1922563,6.0549941 Z M 3.9116563,8.2676722 h 1.368375 c 0.025097,0.6246094 0.1197281,1.215375 0.2733,1.7503128 -0.3010875,0.0391 -0.819,0.343668 -0.8457188,0.358622 C 4.1815344,9.7339496 3.9690031,9.1498878 3.9117688,8.2672316 Z m 2.0385937,0 H 7.6874375 V 9.690985 C 7.1657656,9.707445 6.6664063,9.762545 6.2039375,9.8551598 6.0658438,9.3774097 5.9765938,8.8399409 5.9509063,8.2676909 Z m 2.4066563,0 H 10.09475 C 10.069437,8.8438597 9.9794375,9.3848909 9.839,9.8649848 9.3776562,9.7698276 8.8790938,9.7113276 8.3574688,9.692297 Z m 2.4079687,0 h 1.322063 c -0.0525,0.8110312 -0.291563,1.5089994 -0.74625,2.1228748 C 11.127875,10.256485 10.73975,10.116797 10.4885,10.02961 10.644125,9.4917659 10.73975,8.8968284 10.765063,8.2677659 Z M 7.6874375,10.360735 v 1.530562 C 7.2974375,11.761922 6.9191563,11.411766 6.6060313,10.84786 6.5450943,10.738172 6.4888438,10.61911 6.4349375,10.49536 6.8254063,10.42251 7.247,10.376203 7.687625,10.360622 Z m 0.6695156,0.0013 c 0.4405688,0.0176 0.86175,0.06576 1.2507188,0.140635 -0.053281,0.121031 -0.1088438,0.23759 -0.1686844,0.345356 C 9.1258438,11.411944 8.7473,11.762194 8.356925,11.891288 Z M 5.7744219,10.65181 c 0.075487,0.182381 0.1561781,0.358678 0.2464875,0.521297 0.1281562,0.230625 0.2740312,0.439687 0.433125,0.62625 -0.5128125,-0.209063 -0.9749063,-0.515625 -1.3592813,-0.900938 0.2045063,-0.09168 0.4329,-0.174234 0.6799688,-0.245934 z m 4.4916561,0.01178 c 0.231225,0.06886 0.445041,0.147618 0.63811,0.234168 -0.366169,0.367144 -0.802313,0.664266 -1.286063,0.871875 0.1489875,-0.178621 0.2851313,-0.378834 0.406012,-0.596531 0.08838,-0.159159 0.167719,-0.331434 0.241913,-0.509531 z"
     id="path4"
     inkscape:connector-curvature="0"
     style="fill:#ffffff;fill-rule:evenodd;stroke-width:0.9375" />
  <g
     transform="matrix(0.35714286,0,0,0.35714286,-0.5814299,-0.38285745)"
     style="enable-background:new"
     id="g889">
    <path
       inkscape:connector-curvature="0"
       id="rect877"
       transform="matrix(2.8,0,0,2.8,1.6280037,1.0720005)"
       d="M 8,0.5 C 3.845,0.5 0.5,3.845 0.5,8 0.5,8.084349 0.508983,8.1663399 0.5117188,8.25 0.64374905,4.2125917 3.9293488,1 8,1 12.070651,1 15.356251,4.2125917 15.488281,8.25 15.491017,8.1663399 15.5,8.0843489 15.5,8 15.5,3.845 12.155,0.5 8,0.5 Z"
       style="display:inline;opacity:0.3;fill:#ffffff;fill-opacity:1;stroke:none;stroke-width:0.36585367;stroke-miterlimit:4;stroke-dasharray:none;stroke-opacity:0.25098039;enable-background:new" />
    <path
       inkscape:connector-curvature="0"
       id="rect882"
       transform="matrix(2.8,0,0,2.8,1.6280037,1.0720005)"
       d="M 0.51171875,7.75 C 0.50898292,7.8336601 0.5,7.9156511 0.5,8 c 0,4.155 3.345,7.5 7.5,7.5 4.155,0 7.5,-3.345 7.5,-7.5 C 15.5,7.915651 15.491,7.8336601 15.48828,7.75 15.356251,11.787408 12.070651,15 8,15 3.9293488,15 0.64374905,11.787408 0.51171875,7.75 Z"
       style="display:inline;opacity:0.2;fill:#000000;fill-opacity:1;stroke:none;stroke-width:0.36585367;stroke-miterlimit:4;stroke-dasharray:none;stroke-opacity:0.25098039;enable-background:new" />
  </g>
</svg>
